symbolic/22x22/apps/civilization5.svg

<svg xmlns="http://www.w3.org/2000/svg" width="22" height="22" version="1.1">
 <path style="opacity:0.2" d="M 5.5009261,1.5004034 A 2.4925045,2.4926492 0 0 0 3.1923789,4.9524823 L 9.099487,19.697302 A 2.4925542,2.492715 0 0 1 9.200071,18.029367 L 11.499829,12.289248 7.8182624,3.0990039 A 2.4925045,2.4926492 0 0 0 5.5009261,1.5004034 Z M 13.90603,19.683631 13.82595,19.882845 a 2.4925542,2.492715 0 0 1 -1.992148,1.592741 2.4925045,2.4926492 0 0 0 2.072224,-1.791955 z m -2.70893,1.795861 a 2.4925045,2.4926492 0 0 0 0.05078,0.0059 2.4925542,2.492715 0 0 1 -0.05078,-0.0059 z m 0.589832,0.002 a 2.4925542,2.492715 0 0 1 -0.168942,0.01269 2.4925045,2.4926492 0 0 0 0.168942,-0.01269 z m -0.381828,0.01367 a 2.4925045,2.4926492 0 0 0 0.118162,0.003 2.4925542,2.492715 0 0 1 -0.118162,-0.003 z"/>
 <path style="fill:#ffa000" d="M 5.5013866,1.0004307 A 2.4925045,2.4926492 0 0 0 3.1921557,4.4527938 L 9.173569,19.382854 a 2.4925045,2.4926492 0 1 0 4.626248,-1.853723 L 7.8184049,2.5990716 A 2.4925045,2.4926492 0 0 0 5.5013866,1.0004307 Z"/>
 <path style="opacity:0.2;fill:#ffffff" d="M 5.5009261,1.0004134 A 2.4925045,2.4926492 0 0 0 3.0146482,3.7435222 2.4925045,2.4926492 0 0 1 5.5009261,1.5004034 2.4925045,2.4926492 0 0 1 7.8182624,3.0990039 L 13.799587,18.029367 a 2.4925045,2.4926492 0 0 1 0.185543,0.728501 2.4925045,2.4926492 0 0 0 -0.185543,-1.228491 L 7.8182624,2.599014 A 2.4925045,2.4926492 0 0 0 5.5009261,1.0004134 Z"/>
 <path style="opacity:0.2" d="M 17.422503,1.5018409 A 2.4925542,2.492715 0 0 0 15.181375,3.0985768 L 9.199843,18.029031 a 2.4925542,2.492715 0 1 0 4.626341,1.853772 L 19.807716,4.9523483 A 2.4925542,2.492715 0 0 0 17.422503,1.5018409 Z"/>
 <path style="fill:#ffca28" d="M 17.422503,1.001851 A 2.4925542,2.492715 0 0 0 15.181375,2.5985869 L 9.199843,17.529041 a 2.4925542,2.492715 0 1 0 4.626341,1.853772 L 19.807716,4.4523583 A 2.4925542,2.492715 0 0 0 17.422503,1.001851 Z"/>
 <path style="opacity:0.2;fill:#ffffff" d="M 17.422561,1.00139 A 2.4925542,2.492715 0 0 0 15.181395,2.599014 L 9.200071,17.529377 a 2.4925542,2.492715 0 0 0 -0.18652,1.228491 2.4925542,2.492715 0 0 1 0.18652,-0.728501 L 15.181395,3.0990039 A 2.4925542,2.492715 0 0 1 17.422561,1.5013799 2.4925542,2.492715 0 0 1 19.985986,3.7405926 2.4925542,2.492715 0 0 0 17.422561,1.00139 Z"/>
</svg>

<svg xmlns="http://www.w3.org/2000/svg" width="22" height="22"><path style="opacity:.2" d="M5.5 1.5a2.493 2.493 0 0 0-2.308 3.452L9.1 19.697A2.493 2.493 0 0 1 9.2 18.03l2.3-5.74L7.818 3.1A2.493 2.493 0 0 0 5.501 1.5zm8.406 18.184-.08.199a2.493 2.493 0 0 1-1.992 1.593 2.493 2.493 0 0 0 2.072-1.792zm-2.709 1.795a2.493 2.493 0 0 0 .05.006 2.493 2.493 0 0 1-.05-.006zm.59.002a2.493 2.493 0 0 1-.169.013 2.493 2.493 0 0 0 .169-.013zm-.382.014a2.493 2.493 0 0 0 .118.003 2.493 2.493 0 0 1-.118-.003z"/><path style="fill:#ffa000" d="M5.501 1a2.493 2.493 0 0 0-2.309 3.453l5.982 14.93a2.493 2.493 0 1 0 4.626-1.854L7.818 2.6A2.493 2.493 0 0 0 5.501 1z"/><path style="opacity:.2;fill:#fff" d="M5.5 1a2.493 2.493 0 0 0-2.485 2.744A2.493 2.493 0 0 1 5.5 1.5 2.493 2.493 0 0 1 7.818 3.1l5.982 14.93a2.493 2.493 0 0 1 .185.729 2.493 2.493 0 0 0-.185-1.229L7.818 2.6A2.493 2.493 0 0 0 5.501 1z"/><path style="opacity:.2" d="M17.423 1.502a2.493 2.493 0 0 0-2.242 1.597L9.2 18.029a2.493 2.493 0 1 0 4.626 1.854l5.982-14.93a2.493 2.493 0 0 0-2.385-3.451z"/><path style="fill:#ffca28" d="M17.423 1.002a2.493 2.493 0 0 0-2.242 1.597L9.2 17.529a2.493 2.493 0 1 0 4.626 1.854l5.982-14.93a2.493 2.493 0 0 0-2.385-3.451z"/><path style="opacity:.2;fill:#fff" d="M17.423 1.001A2.493 2.493 0 0 0 15.18 2.6l-5.98 14.93a2.493 2.493 0 0 0-.187 1.229 2.493 2.493 0 0 1 .186-.729L15.181 3.1a2.493 2.493 0 0 1 2.242-1.598 2.493 2.493 0 0 1 2.563 2.24A2.493 2.493 0 0 0 17.423 1z"/></svg>
